!!! OTL: Berkowitz607
!!! Chapter: 1
!!! Section: V
!!! Page: 155
!!! Mode: 
!!! Encoder: AR
**kern
*staff1
!!pagebreak:original
*clefC3
*k[]
*C:
*M4/4
8b-\L
8b-\J
=1
2g-\
4r
8b-\L
8b-\J
=2
8g-\
4.A/
4r
8b-\L
8b-\J
=3
8gn\L
8f\
8f#\
8cc#\J
2e\
=4
4d#\
4b\
4r
8ccn\L
8a\J
=5
!!linebreak:original
4b-\
4d-\
8r
8d-\
8d-\L
8b-\J
=6
8a\L
8g\J
4Bn/
8r
8g\
8dn\L
8f\J
=7
4c#\
8f#\L
8b\J
8ee-\L
8ccn\
8g\
8en\J
=8
2.g#\
4r
==
*-
